public/apple_icon.svg

<svg width="12" height="14" viewBox="0 0 12 14" fill="none" xmlns="http://www.w3.org/2000/svg">
<path fill-rule="evenodd" clip-rule="evenodd" d="M11.6944 9.7801C11.4543 10.3454 11.1597 10.8868 10.8144 11.3968C10.2424 12.2529 9.43435 13.3212 8.43735 13.3281C7.54935 13.336 7.32035 12.759 6.11435 12.7689C4.90835 12.7787 4.65835 13.3389 3.76935 13.3301C2.76935 13.3212 2.00735 12.359 1.43535 11.504C-0.164647 9.10784 -0.334647 6.29499 0.654353 4.80404C1.26029 3.81344 2.32699 3.18301 3.50135 3.12144C4.56135 3.12144 5.22635 3.69345 6.10135 3.69345C6.95135 3.69345 7.46835 3.12046 8.69335 3.12046C9.72352 3.16673 10.679 3.66221 11.2994 4.47185C10.2814 5.02526 9.68387 6.10993 9.76872 7.25019C9.85357 8.39045 10.6053 9.37813 11.6944 9.7801ZM7.76335 2.16222C8.2701 1.55789 8.50863 0.778826 8.42535 0C7.61825 0.0946005 6.87756 0.486152 6.35235 1.09585C5.83163 1.67303 5.58512 2.44057 5.67435 3.20696C6.4962 3.18942 7.26515 2.80485 7.76335 2.16222Z" fill="#A7A9AB"/>
</svg>

<svg width="12" height="14" xmlns="http://www.w3.org/2000/svg"><path fill-rule="evenodd" clip-rule="evenodd" d="M11.694 9.78a9.526 9.526 0 01-.88 1.617c-.572.856-1.38 1.924-2.377 1.931-.888.008-1.117-.569-2.323-.56-1.206.01-1.456.57-2.345.562-1-.009-1.762-.971-2.334-1.826-1.6-2.396-1.77-5.209-.78-6.7A3.552 3.552 0 013.5 3.121c1.06 0 1.725.572 2.6.572.85 0 1.367-.573 2.592-.573A3.478 3.478 0 0111.3 4.472 2.92 2.92 0 009.77 7.25a2.937 2.937 0 001.925 2.53zm-3.93-7.618A2.886 2.886 0 008.424 0a3.232 3.232 0 00-2.073 1.096 2.686 2.686 0 00-.678 2.111 2.716 2.716 0 002.09-1.045z" fill="#A7A9AB"/></svg>
